X: 31281
T: Paddy In London
R: jig
M: 6/8
K: Dmajor
FDF ABc|dec def|AGF G2A|BGE E3|
FDF ABc|dec def|AGA BAG|FGE DA,B,|
~D3 ABc|dec def|AGF G2A|BGE E3|
FDF ABc|dec def|AGA BAG|FGE D2f|
|:ecA Agf|edc d2B|AGF G2A|BGE E2g|
gfa geg|fdf ecA|Bcd edB|1 AFD Dgf:|2 AFE DA,B,|

